assets/hanging-banner-dragon.svg

<svg id="esh2jxi1yqzj1" xmlns="http://www.w3.org/2000/svg" xmlns:xlink="http://www.w3.org/1999/xlink" viewBox="0 0 224.020000 429.730000" shape-rendering="geometricPrecision" text-rendering="geometricPrecision"><style><![CDATA[#esh2jxi1yqzj19 {animation: esh2jxi1yqzj19_c_o 3000ms linear infinite normal forwards}@keyframes esh2jxi1yqzj19_c_o { 0% {opacity: 0} 10% {opacity: 0.500000} 20% {opacity: 1} 50% {opacity: 0} 60% {opacity: 0.500000} 70% {opacity: 1} 100% {opacity: 0} }#esh2jxi1yqzj20 {animation: esh2jxi1yqzj20_c_o 3000ms linear infinite normal forwards}@keyframes esh2jxi1yqzj20_c_o { 0% {opacity: 0} 20% {opacity: 0.500000} 30% {opacity: 1} 50% {opacity: 0} 70% {opacity: 0.500000} 80% {opacity: 1} 100% {opacity: 0} }#esh2jxi1yqzj21 {animation: esh2jxi1yqzj21_c_o 3000ms linear infinite normal forwards}@keyframes esh2jxi1yqzj21_c_o { 0% {opacity: 0} 30% {opacity: 0.500000} 40% {opacity: 1} 50% {opacity: 0} 83.333333% {opacity: 0.500000} 90% {opacity: 1} 100% {opacity: 0} }]]></style><path id="esh2jxi1yqzj2" d="M256,430.700000C193.580000,395.220000,160.400000,340.790000,151.650000,270.520000L339,270.520000Q342.880000,332.350000,256,430.700000Z" transform="matrix(1 0 0 1 -137.24000000000001 -0.96000000000000)" fill="rgb(139,0,47)" stroke="none" stroke-width="1"/><path id="esh2jxi1yqzj3" d="M351.480000,22.700000L151.650000,22.700000C149.940000,104.870000,150.570000,187.640000,151.650000,270.520000L339,270.520000C347,192,351.390000,110.300000,351.520000,24.780000" transform="matrix(1 0 0 1 -137.24000000000001 -0.96000000000000)" fill="rgb(0,0,0)" stroke="none" stroke-width="1"/><polygon id="esh2jxi1yqzj4" points="219.980000,22.730000 7.630000,22.730000 114.330000,2.040000 216.850000,22.730000 219.980000,22.730000" fill="none" stroke="rgb(0,0,0)" stroke-width="4"/><circle id="esh2jxi1yqzj5" r="4.040000" transform="matrix(1 0 0 1 4.04000000000000 23.23000000000000)" fill="rgb(0,0,0)" stroke="none" stroke-width="1"/><circle id="esh2jxi1yqzj6" r="4.040000" transform="matrix(1 0 0 1 219.97999999999999 22.73000000000000)" fill="rgb(0,0,0)" stroke="none" stroke-width="1"/><g id="esh2jxi1yqzj7" transform="matrix(0.22575700000000 0 0 0.13366200000000 36.79400000000000 13.21070000000000)"><g id="esh2jxi1yqzj8"><path id="esh2jxi1yqzj9" d="M433.500000,306.600000C364.200000,181,326.700000,129.800000,178.600000,82C313.900000,139.300000,343.500000,185.600000,399.100000,296.400000Z" transform="matrix(1 0 0 1 -9.30844000000000 0)" fill="rgb(255,255,255)" stroke="none" stroke-width="1"/></g></g><g id="esh2jxi1yqzj10" transform="matrix(0.22575700000000 0 0 0.13366200000000 36.79400000000000 13.21070000000000)"><g id="esh2jxi1yqzj11"><g id="esh2jxi1yqzj12"><path id="esh2jxi1yqzj13" d="M389.200000,405.500000L377.400000,434C320.200000,388.400000,267.600000,386.800000,185.900000,422.600000C256,368.500000,308.800000,357.200000,389.200000,405.500000Z" fill="rgb(255,255,255)" stroke="none" stroke-width="1"/><path id="esh2jxi1yqzj14" d="M372.900000,451.100000L352.200000,477.700000C343.400000,448.100000,266.500000,461.300000,184.400000,477.700000C254,444.400000,320.700000,421.300000,372.900000,451.100000Z" fill="rgb(255,255,255)" stroke="none" stroke-width="1"/><path id="esh2jxi1yqzj15" d="M429.600000,492.100000C420.300000,527.700000,421,555.300000,430.200000,579C458.700000,615.900000,476.700000,667.500000,492.800000,722.300000C500.100000,789.900000,470.800000,841.300000,431.900000,888.600000C466,822.600000,487.600000,766.400000,476.200000,733.100000C469.800000,682.200000,464.700000,668.700000,415.300000,584.300000C404.300000,569.800000,412.900000,518.200000,429.600000,492.100000Z" fill="rgb(255,255,255)" stroke="none" stroke-width="1"/><path id="esh2jxi1yqzj16" d="M248,1122.400000C161.400000,980.200000,108.600000,832.800000,92.700000,683.200000C71.300000,578.600000,109.900000,451.100000,189.600000,393.200000C266.600000,333,339.700000,337.500000,404.700000,403.700000C402,455.700000,375,495,337.400000,525.300000C343.200000,602.300000,400.800000,688.800000,456.400000,765.900000C426.400000,701.800000,401.600000,639.900000,396.500000,586.200000C397.500000,502.200000,431.900000,495.100000,476.300000,523.400000L504.400000,568.100000L547.300000,581.400000L593.900000,680.300000L653,685.100000L578.300000,537.800000L576.100000,465.500000C553.900000,441.100000,538.200000,416.900000,518.400000,395.100000C519.700000,349.700000,510.200000,304,494.700000,258.200000C493.700000,294.100000,493.500000,330.200000,474.700000,366.600000C415.500000,333.200000,357,318,296.600000,318.100000C256.400000,324.200000,219,337.400000,185.700000,360.900000C138.500000,402.200000,96.400000,447.500000,80.700000,507.300000C69,536.800000,67.300000,570.700000,65.900000,613.800000C65,667,73.200000,759.300000,117.900000,892.400000C143.300000,984.500000,192,1064.800000,248,1122.400000ZM477.900000,454.900000C472.500000,438.300000,467.300000,425.900000,473.500000,417.800000C473.500000,417.800000,485.300000,418.700000,486.100000,410.200000C486.800000,401.600000,521.300000,467.900000,529.700000,500.500000C502.300000,486.300000,491.200000,479.700000,477.900000,454.900000ZM460.200000,715.500000C464.900000,732.500000,465.800000,747.200000,452.800000,753.500000L441,729.700000C452.200000,733,457.700000,726.600000,460.200000,715.500000ZM407.700000,634.700000C421,644.100000,422.400000,624.300000,422.500000,610.900000C428.300000,628.500000,428.400000,653.500000,415.100000,665.100000ZM504.500000,568.100000C499.600000,583.700000,488,584.300000,470.500000,571.900000C486.700000,571.900000,494.900000,565.300000,492.700000,550ZM559.200000,614.700000C555.500000,628.200000,545.200000,624.600000,534.800000,620.400000C548,617.300000,551.100000,605,550.300000,589ZM588.800000,679.300000C582.400000,692.700000,565.800000,681.400000,548.100000,671.700000C570.900000,672.300000,585,671.400000,574.700000,641.300000Z" fill="rgb(255,255,255)" stroke="none" stroke-width="1"/><path id="esh2jxi1yqzj17" d="M285.700000,1188.100000C344.300000,1309.900000,381.500000,1433.200000,370,1559.900000C367.800000,1754.800000,292.300000,1826.800000,221.400000,1887.900000C297.900000,1775.400000,350.300000,1656.800000,341.900000,1557C356.400000,1438.300000,329.300000,1314.300000,285.700000,1188.100000Z" fill="rgb(255,255,255)" stroke="none" stroke-width="1"/></g></g></g><g id="esh2jxi1yqzj18" transform="matrix(0.34559300000000 0 0 0.19351000000000 -18.83350000000000 -23.09270000000000)"><path id="esh2jxi1yqzj19" d="M464.200000,606.600000C617,703.300000,497.800000,773.800000,568.700000,920.400000L569.200000,920.700000C445.100000,831.600000,583.200000,692.100000,464.900000,607.300000" opacity="0" fill="rgb(137,39,45)" stroke="none" stroke-width="1"/><path id="esh2jxi1yqzj20" d="M625.500000,879.100000C656.900000,792.800000,577.100000,780.100000,556.900000,703.400000C545.500000,805.400000,627.300000,803.300000,625.100000,879.200000" opacity="0" fill="rgb(137,39,45)" stroke="none" stroke-width="1"/><path id="esh2jxi1yqzj21" d="M555.500000,815.900000C665.800000,894,560.800000,920.200000,653.700000,1072.700000L654.300000,1073.200000C534.800000,1002,626.400000,906.300000,556.500000,817.600000" opacity="0" fill="rgb(137,39,45)" stroke="none" stroke-width="1"/></g></svg>

<?xml version="1.0" encoding="UTF-8" standalone="no"?>
<svg
   xmlns:dc="http://purl.org/dc/elements/1.1/"
   xmlns:cc="http://creativecommons.org/ns#"
   xmlns:rdf="http://www.w3.org/1999/02/22-rdf-syntax-ns#"
   xmlns:svg="http://www.w3.org/2000/svg"
   xmlns="http://www.w3.org/2000/svg"
   xmlns:sodipodi="http://sodipodi.sourceforge.net/DTD/sodipodi-0.dtd"
   xmlns:inkscape="http://www.inkscape.org/namespaces/inkscape"
   id="Layer_2"
   data-name="Layer 2"
   viewBox="0 0 224.02 429.73"
   version="1.1"
   sodipodi:docname="hanging-banner-dragon.svg"
   inkscape:version="1.0.2 (e86c870879, 2021-01-15, custom)">
  <metadata
     id="metadata46">
    <rdf:RDF>
      <cc:Work
         rdf:about="">
        <dc:format>image/svg+xml</dc:format>
        <dc:type
           rdf:resource="http://purl.org/dc/dcmitype/StillImage" />
        <dc:title></dc:title>
      </cc:Work>
    </rdf:RDF>
  </metadata>
  <sodipodi:namedview
     pagecolor="#ffffff"
     bordercolor="#666666"
     borderopacity="1"
     objecttolerance="10"
     gridtolerance="10"
     guidetolerance="10"
     inkscape:pageopacity="0"
     inkscape:pageshadow="2"
     inkscape:window-width="1920"
     inkscape:window-height="1017"
     id="namedview44"
     showgrid="false"
     inkscape:zoom="1.3608017"
     inkscape:cx="-195.10839"
     inkscape:cy="138.39727"
     inkscape:window-x="1272"
     inkscape:window-y="-8"
     inkscape:window-maximized="1"
     inkscape:current-layer="Layer_2" />
  <defs
     id="defs31">
    <style
       id="style29">.cls-1{fill:#8b002f;}.cls-2{fill:none;stroke:#000;stroke-width:4px;}</style>
  </defs>
  <path
     class="cls-1"
     d="M256,430.7c-62.42-35.48-95.6-89.91-104.35-160.18H339Q342.88,332.35,256,430.7Z"
     id="path33"
     transform="translate(-137.24 -0.96)" />
  <path
     d="M351.48,22.7H151.65c-1.71,82.17-1.08,164.94,0,247.82H339c8-78.52,12.39-160.22,12.52-245.74"
     transform="translate(-137.24 -0.96)"
     id="path35" />
  <polygon
     class="cls-2"
     points="219.98 22.73 7.63 22.73 114.33 2.04 216.85 22.73 219.98 22.73"
     id="polygon37" />
  <circle
     cx="4.04"
     cy="23.23"
     r="4.04"
     id="circle39" />
  <circle
     cx="219.98"
     cy="22.73"
     r="4.04"
     id="circle41" />
  <g
     id="g372"
     transform="matrix(0.89807086,0,0,0.86935089,9.3890863,20.347745)">
    <g
       id="dragon-g1"
       style="fill:#ffffff;shape-rendering:geometricPrecision;text-rendering:geometricPrecision"
       transform="matrix(0.20827439,0,0,0.13081402,42.354205,15.648811)">
      <g
         id="dragon-g2"
         style="fill:#ffffff">
        <path
           id="dragon-path1"
           d="M 433.5,306.6 C 364.2,181 326.7,129.8 178.6,82 313.9,139.3 343.5,185.6 399.1,296.4 Z"
           transform="translate(-9.3084351)"
           fill="#050505"
           stroke="none"
           stroke-width="1"
           style="fill:#ffffff" />
      </g>
    </g>
    <g
       id="dragon-g3"
       style="fill:#ffffff;shape-rendering:geometricPrecision;text-rendering:geometricPrecision"
       transform="matrix(0.20827439,0,0,0.13081402,42.354205,15.648811)">
      <g
         id="dragon-g4"
         style="fill:#ffffff">
        <g
           id="dragon-g5"
           style="fill:#ffffff">
          <path
             id="dragon-path2"
             d="M 389.2,405.5 377.4,434 C 320.2,388.4 267.6,386.8 185.9,422.6 256,368.5 308.8,357.2 389.2,405.5 Z"
             fill="#0b0909"
             stroke="none"
             stroke-width="1"
             style="fill:#ffffff" />
          <path
             id="dragon-path3"
             d="m 372.9,451.1 -20.7,26.6 c -8.8,-29.6 -85.7,-16.4 -167.8,0 69.6,-33.3 136.3,-56.4 188.5,-26.6 z"
             fill="#0e0e0e"
             stroke="none"
             stroke-width="1"
             style="fill:#ffffff" />
          <path
             id="dragon-path4"
             d="m 429.6,492.1 c -9.3,35.6 -8.6,63.2 0.6,86.9 28.5,36.9 46.5,88.5 62.6,143.3 7.3,67.6 -22,119 -60.9,166.3 34.1,-66 55.7,-122.2 44.3,-155.5 -6.4,-50.9 -11.5,-64.4 -60.9,-148.8 -11,-14.5 -2.4,-66.1 14.3,-92.2 z"
             fill="#191818"
             stroke="none"
             stroke-width="1"
             style="fill:#ffffff" />
          <path
             id="dragon-path5"
             d="M 248,1122.4 C 161.4,980.2 108.6,832.8 92.7,683.2 c -21.4,-104.6 17.2,-232.1 96.9,-290 77,-60.2 150.1,-55.7 215.1,10.5 -2.7,52 -29.7,91.3 -67.3,121.6 5.8,77 63.4,163.5 119,240.6 -30,-64.1 -54.8,-126 -59.9,-179.7 1,-84 35.4,-91.1 79.8,-62.8 l 28.1,44.7 42.9,13.3 46.6,98.9 59.1,4.8 -74.7,-147.3 -2.2,-72.3 c -22.2,-24.4 -37.9,-48.6 -57.7,-70.4 1.3,-45.4 -8.2,-91.1 -23.7,-136.9 -1,35.9 -1.2,72 -20,108.4 C 415.5,333.2 357,318 296.6,318.1 256.4,324.2 219,337.4 185.7,360.9 138.5,402.2 96.4,447.5 80.7,507.3 69,536.8 67.3,570.7 65.9,613.8 c -0.9,53.2 7.3,145.5 52,278.6 25.4,92.1 74.1,172.4 130.1,230 z M 477.9,454.9 c -5.4,-16.6 -10.6,-29 -4.4,-37.1 0,0 11.8,0.9 12.6,-7.6 0.7,-8.6 35.2,57.7 43.6,90.3 -27.4,-14.2 -38.5,-20.8 -51.8,-45.6 z m -17.7,260.6 c 4.7,17 5.6,31.7 -7.4,38 L 441,729.7 c 11.2,3.3 16.7,-3.1 19.2,-14.2 z m -52.5,-80.8 c 13.3,9.4 14.7,-10.4 14.8,-23.8 5.8,17.6 5.9,42.6 -7.4,54.2 z m 96.8,-66.6 c -4.9,15.6 -16.5,16.2 -34,3.8 16.2,0 24.4,-6.6 22.2,-21.9 z m 54.7,46.6 c -3.7,13.5 -14,9.9 -24.4,5.7 13.2,-3.1 16.3,-15.4 15.5,-31.4 z m 29.6,64.6 c -6.4,13.4 -23,2.1 -40.7,-7.6 22.8,0.6 36.9,-0.3 26.6,-30.4 z"
             fill="#000000"
             stroke="none"
             stroke-width="1"
             style="fill:#ffffff" />
          <path
             id="dragon-path6"
             d="m 285.7,1188.1 c 58.6,121.8 95.8,245.1 84.3,371.8 -2.2,194.9 -77.7,266.9 -148.6,328 76.5,-112.5 128.9,-231.1 120.5,-330.9 14.5,-118.7 -12.6,-242.7 -56.2,-368.9 z"
             fill="#0e0d0d"
             stroke="none"
             stroke-width="1"
             style="fill:#ffffff" />
        </g>
      </g>
    </g>
    <g
       id="dragon-g6"
       style="shape-rendering:geometricPrecision;text-rendering:geometricPrecision"
       transform="matrix(0.20827439,0,0,0.13081402,42.354205,15.648811)">
      <path
         id="dragon-path7"
         d="m 464.2,606.6 c 152.8,96.7 33.6,167.2 104.5,313.8 l 0.5,0.3 C 445.1,831.6 583.2,692.1 464.9,607.3"
         fill="#89272d"
         stroke="none"
         stroke-width="1" />
      <path
         id="dragon-path8"
         d="m 625.5,879.1 c 31.4,-86.3 -48.4,-99 -68.6,-175.7 -11.4,102 70.4,99.9 68.2,175.8"
         fill="#89272d"
         stroke="none"
         stroke-width="1" />
      <path
         id="dragon-path9"
         d="m 555.5,815.9 c 110.3,78.1 5.3,104.3 98.2,256.8 l 0.6,0.5 C 534.8,1002 626.4,906.3 556.5,817.6"
         fill="#89272d"
         stroke="none"
         stroke-width="1" />
    </g>
  </g>
</svg>
